public/icons/fdiscord.svg

<svg width="22" height="17" viewBox="0 0 22 17" fill="none" xmlns="http://www.w3.org/2000/svg">
<path d="M18.6238 1.40992C17.2214 0.758292 15.7181 0.276657 14.146 0.00278609C14.132 1.70762e-05 14.1175 0.00180153 14.1046 0.00789268C14.0916 0.0139838 14.0808 0.0240803 14.0736 0.0367839C13.8811 0.385261 13.6666 0.839509 13.5163 1.19837C11.849 0.941726 10.154 0.941726 8.4867 1.19837C8.31926 0.800658 8.13044 0.41286 7.92113 0.0367839C7.91403 0.0239239 7.9033 0.013599 7.89036 0.00718703C7.87742 0.000775021 7.86289 -0.00141923 7.84871 0.000897232C6.27759 0.274768 4.7743 0.756403 3.37093 1.40897C3.35885 1.41419 3.34862 1.42309 3.34159 1.43447C0.48901 5.75502 -0.292884 9.96885 0.0911879 14.1298C0.0922567 14.14 0.0953271 14.1499 0.100212 14.1588C0.105097 14.1677 0.111695 14.1755 0.119604 14.1817C1.78458 15.4306 3.64164 16.382 5.61303 16.996C5.62677 17.0004 5.64147 17.0003 5.65521 16.996C5.66894 16.9916 5.68108 16.983 5.69003 16.9714C6.11351 16.3859 6.49117 15.7674 6.81383 15.1176C6.83308 15.0799 6.81474 15.0345 6.77624 15.0194C6.1841 14.7897 5.61036 14.5124 5.06029 14.1902C5.05041 14.1844 5.04208 14.1762 5.03606 14.1662C5.03003 14.1563 5.02649 14.145 5.02577 14.1333C5.02504 14.1216 5.02714 14.1098 5.03189 14.0992C5.03664 14.0885 5.04388 14.0793 5.05296 14.0722C5.16846 13.9844 5.28395 13.8928 5.39395 13.8012C5.40385 13.7929 5.41578 13.7877 5.4284 13.786C5.44103 13.7843 5.45385 13.7863 5.46545 13.7917C9.06509 15.4576 12.9636 15.4576 16.521 13.7917C16.5327 13.786 16.5456 13.7838 16.5584 13.7853C16.5712 13.7868 16.5834 13.7919 16.5935 13.8002C16.7035 13.8928 16.818 13.9844 16.9345 14.0722C16.9436 14.0791 16.951 14.0883 16.9559 14.0988C16.9608 14.1094 16.9631 14.121 16.9625 14.1327C16.962 14.1444 16.9586 14.1558 16.9528 14.1658C16.9469 14.1759 16.9387 14.1843 16.929 14.1902C16.3808 14.5151 15.8106 14.7899 15.2121 15.0185C15.2029 15.0219 15.1945 15.0273 15.1875 15.0344C15.1805 15.0414 15.1751 15.0499 15.1715 15.0593C15.1679 15.0687 15.1664 15.0787 15.1669 15.0888C15.1674 15.0988 15.17 15.1087 15.1745 15.1176C15.5045 15.7664 15.8821 16.384 16.2974 16.9705C16.306 16.9825 16.318 16.9915 16.3318 16.9963C16.3456 17.001 16.3605 17.0012 16.3744 16.9969C18.3491 16.3846 20.2092 15.4328 21.8761 14.1817C21.8842 14.1759 21.891 14.1683 21.8961 14.1595C21.9011 14.1507 21.9043 14.1409 21.9054 14.1307C22.3637 9.32006 21.1372 5.14023 18.6522 1.43636C18.6461 1.42432 18.6361 1.41494 18.6238 1.40992ZM7.3519 11.596C6.26843 11.596 5.3747 10.5865 5.3747 9.34839C5.3747 8.10936 6.25101 7.10076 7.3519 7.10076C8.46103 7.10076 9.3465 8.11786 9.32909 9.34839C9.32909 10.5874 8.45278 11.596 7.3519 11.596ZM14.6621 11.596C13.5777 11.596 12.6849 10.5865 12.6849 9.34839C12.6849 8.10936 13.5603 7.10076 14.6621 7.10076C15.7712 7.10076 16.6567 8.11786 16.6393 9.34839C16.6393 10.5874 15.7722 11.596 14.6621 11.596Z" fill="white"/>
</svg>

<svg width="22" height="17" fill="none" xmlns="http://www.w3.org/2000/svg"><path d="M18.624 1.41A17.932 17.932 0 0 0 14.146.003a.067.067 0 0 0-.041.005.07.07 0 0 0-.031.029c-.193.348-.407.803-.558 1.161a16.524 16.524 0 0 0-5.03 0A11.818 11.818 0 0 0 7.922.037a.072.072 0 0 0-.03-.03.069.069 0 0 0-.042-.006A17.92 17.92 0 0 0 3.37 1.409a.065.065 0 0 0-.03.025C.49 5.755-.292 9.97.092 14.13a.077.077 0 0 0 .029.052 18.151 18.151 0 0 0 5.493 2.814.07.07 0 0 0 .077-.025c.424-.585.801-1.204 1.124-1.853a.071.071 0 0 0-.038-.099 11.936 11.936 0 0 1-1.716-.829.072.072 0 0 1-.007-.118c.115-.088.23-.18.341-.27a.068.068 0 0 1 .071-.01c3.6 1.666 7.499 1.666 11.056 0a.067.067 0 0 1 .072.008c.11.093.225.184.341.272a.071.071 0 0 1 .028.06.072.072 0 0 1-.033.058c-.548.325-1.118.6-1.717.829a.071.071 0 0 0-.045.07c0 .01.003.02.008.029.33.648.707 1.266 1.122 1.853.009.012.021.02.035.025a.069.069 0 0 0 .042 0 18.093 18.093 0 0 0 5.502-2.814.071.071 0 0 0 .03-.051c.458-4.81-.769-8.99-3.254-12.695a.055.055 0 0 0-.028-.026zM7.352 11.596c-1.084 0-1.977-1.01-1.977-2.248 0-1.239.876-2.247 1.977-2.247 1.109 0 1.995 1.017 1.977 2.247 0 1.24-.876 2.248-1.977 2.248zm7.31 0c-1.084 0-1.977-1.01-1.977-2.248 0-1.239.875-2.247 1.977-2.247 1.11 0 1.995 1.017 1.977 2.247 0 1.24-.867 2.248-1.977 2.248z" fill="#fff"/></svg>
